X: 345
T: Huckle and Buff
M:3/2
L:1/8
S: 8: MCJLSH3 http://www.cpartington.plus.com/links/Walsh.abc
Z: Pete Stewart 2004
B: Walsh "Third Book of the most Celebrated jiggs, Lancashire hornpipes, ..."
K:F
fgaf f2F2f3f | gabag2G2g3g | agab agfe dcBA | BAGFG2e2f4 ||
ABcd dAfd cAfd cAGF | ABcd cagf gedc | ABcd cAfd cAGF | EFGA GEcA GEDC |
fgag f2F2 f3f | gabag2G2g3g | agab agfe dcBA | BAGF G2e2f3_e |
dfdB dfbf dfdB | AcAF Acfc AcAF | EGEC EGcG EGEC | EGFAG2=B2"D.C."c4 ||

%%sep 1 1 500
%%sep 1 1 500
